X:3296
T:Concertina Cocktail Polka
R:polka
M:2/4
L:1/16
K:A
"E7"g4 g^g f^e|e2 z2 "E7"e4|:"A"gece "E"dcAd|"A"c=c^ce AB=c^c|"E"B=c^cd GA^AB|"A"AB=c^c d^def|
"A"gece "E"dcBd|"A"c=c^ce AB=c^c|"E"B^ABc defg|1 "A"a2ec A4:|2 "E7"a2b2g2 z2|
|:"D"(3fced2 "A"(3efdc2|"D"d2cB A4|"A"ABcd e^dec|"D"dcde f=g^gb|
"D"(3fced2 "A"(3efdc2|"D"d2cB A4|"A"ABcd efed|"D"d2f2d2 z2:|
|:"G"d2cd edcB|"D"B^A=A2 d4|"A7"(3dedc2 e4|"D"(3e^dee2=d2 f2|
"G"d2cd edcB|"D"B^A=A2 d4|"A7"(3dedc2 e2c2|1 "D"d2f2d2 z2:|2 "D"d2^d2"E"e2 z2||
 


